X:139
T: Frau Mllerin (2-41) S. 132
N: P0914
O: Lothringen
S: PINCK, Louis: Verklingende Weisen, Bd 2, Metz 1928]
R: Untreue, Beischlaf]
M: 2/4
L: 1/16
K: D
A,2 | D3EF2G2 | A3BA2
F2 | G2F2G2A2 | F2z4
FG | A2F2A2F2 | G2B2B2
E2 | G2E2G2E2 | F2A2A3
A, | D3EF2G2 | A2d2B2
e2 | d3dc2Bc | d4z2

